build/images/content/features/icon_5.svg

<svg width="30" height="30" viewBox="0 0 30 30" fill="none" xmlns="http://www.w3.org/2000/svg">
<g>
<path d="M29.0799 11.2289C29.0453 11.2255 25.5774 10.8504 21.8954 7.42903H21.8954C20.2368 5.88798 17.6512 6.22474 16.421 7.06129L16.4011 7.07476C15.5501 7.64715 14.4502 7.64715 13.6 7.07546L13.5778 7.06041C12.3489 6.22474 9.76337 5.88792 8.10473 7.42909C6.19788 9.20097 4.34723 10.1394 3.13053 10.6145C1.80837 11.1308 0.925673 11.2283 0.920169 11.2289L0 11.319L0.137083 12.2333C0.154708 12.3509 0.592482 15.1456 2.64562 17.9541C3.8567 19.6108 5.38024 20.9311 7.17397 21.8786C9.39522 23.0518 12.0282 23.6467 15 23.6467C17.9718 23.6467 20.6049 23.0518 22.8261 21.8786C24.6198 20.9311 26.1434 19.6107 27.3544 17.9541C29.4075 15.1456 29.8453 12.3509 29.8629 12.2333L30 11.319L29.0799 11.2289ZM21.9639 20.3471C20.0068 21.3709 17.6638 21.8899 15 21.8899C12.3363 21.8899 9.99326 21.3709 8.03616 20.3471C6.48363 19.535 5.16171 18.4008 4.10703 16.9761C3.65866 16.3704 3.29607 15.7615 3.00405 15.1872C3.39802 15.4517 3.84423 15.7276 4.34419 16.003C6.48159 17.1803 10.0653 18.5837 15 18.5837C19.9348 18.5837 23.5185 17.1803 25.6559 16.003C26.1558 15.7276 26.602 15.4517 26.996 15.1872C26.7039 15.7615 26.3414 16.3704 25.893 16.9761C24.8384 18.4009 23.5164 19.535 21.9639 20.3471ZM12.5913 8.51404L12.6186 8.53242C14.0653 9.50535 15.9349 9.50535 17.3807 8.53289L17.4102 8.51304C18.0289 8.09219 19.7041 7.79103 20.6996 8.716H20.6995C22.3977 10.294 24.066 11.2795 25.3713 11.8838H4.6303C6.67477 10.9388 8.27238 9.6713 9.30047 8.716C10.2959 7.79091 11.971 8.09213 12.5913 8.51404ZM26.1459 13.6404C25.7435 13.917 25.2727 14.2119 24.7325 14.5058C22.7866 15.5647 19.5185 16.827 15 16.827C10.4816 16.827 7.21343 15.5647 5.26752 14.5058C4.72739 14.2119 4.25659 13.917 3.85412 13.6404H26.1459Z" fill="#4283D0"/>
</g>
</svg>

<svg width="30" height="30" fill="none" xmlns="http://www.w3.org/2000/svg"><path d="M29.08 11.229c-.035-.003-3.503-.379-7.185-3.8-1.658-1.541-4.244-1.204-5.474-.368l-.02.014a2.5 2.5 0 01-2.801 0l-.022-.015c-1.23-.835-3.815-1.172-5.473.37-1.907 1.77-3.758 2.71-4.975 3.183-1.323.517-2.205.614-2.21.615l-.921.09.137.914c.018.118.455 2.913 2.509 5.721a13.217 13.217 0 004.528 3.925c2.221 1.173 4.854 1.768 7.826 1.768 2.972 0 5.605-.595 7.826-1.768a13.217 13.217 0 004.528-3.925c2.053-2.808 2.491-5.603 2.509-5.72l.137-.915-.92-.09zm-7.116 9.118c-1.957 1.024-4.3 1.543-6.964 1.543-2.664 0-5.007-.52-6.964-1.543a11.47 11.47 0 01-3.929-3.37 12.629 12.629 0 01-1.103-1.79c.394.265.84.54 1.34.816 2.138 1.177 5.721 2.58 10.656 2.58 4.935 0 8.518-1.403 10.656-2.58.5-.275.946-.551 1.34-.816a12.633 12.633 0 01-1.103 1.79 11.468 11.468 0 01-3.93 3.37zM12.59 8.514l.028.018a4.25 4.25 0 004.762 0l.03-.019c.618-.42 2.293-.722 3.289.203 1.698 1.578 3.366 2.564 4.671 3.168H4.631c2.044-.945 3.641-2.213 4.67-3.168.995-.925 2.67-.624 3.29-.202zm13.555 5.126c-.402.277-.873.572-1.413.866-1.946 1.059-5.215 2.321-9.733 2.321-4.518 0-7.787-1.262-9.732-2.321a16.021 16.021 0 01-1.414-.866h22.292z" fill="#4283D0"/></svg>
